Cloud/dashboard/static/tracks/zandvoort.svg

<?xml version="1.0" encoding="UTF-8"?>
<!-- Uploaded to: SVG Find, www.svgfind.com, Generator: SVG Find Mixer Tools -->
<svg fill="#000000" width="800px" height="800px" version="1.1" viewBox="144 144 512 512" xmlns="http://www.w3.org/2000/svg">
 <path d="m593.08 466.09c-5.5586-10.234-16.242-16.59-27.883-16.59-5.8594 0-11.605 1.6367-16.617 4.7383-29.109 18.004-76.852 47.523-87.336 53.934l-0.5 0.30469c-8.4805 5.1836-18.09 11.055-24.91 11.055-2.6406 0-5.7031-0.70703-8.4023-5.9688-3.0625-5.9766-1.1602-12.66 5.6523-19.867 2.5625-2.7109 3.8828-6.2461 3.7109-9.9531-0.16797-3.668-1.7812-7.0234-4.543-9.4492-13.102-11.516-45.676-40.715-65.102-63.055-24.945-28.688-56.387-95.898-61.223-109.13-0.54297-1.4805-1.2305-3.1953-1.9883-5.082-7.1953-17.898-12.914-36.086 2.6523-44.578 3.8594-2.1055 7.668-3.1758 11.316-3.1758 12.848 0 23.211 13.207 29.641 24.281 1.1016 1.8945 2.2852 4.1562 3.5898 6.6328 8.3125 15.812 20.875 39.711 44.586 39.711 4.9844 0 9.5117-2.0469 13.09-5.918 14.441-15.625 11.445-59.27 11.051-64.273-1.0664-11.23-6.2305-23.168-10.371-31.203-3.5586-6.9102-10.277-11.801-17.961-13.082-25.746-4.2969-70.684-12.508-103.85-18.645-20.062-3.707-40.141 4.1914-52.375 20.406-10.156 13.457-13.316 30.508-8.6758 46.773 8.3789 29.359 13.523 47.125 15.727 54.312 7.1992 23.523 33.617 48.707 56.605 63.227 25.922 16.371 30.535 45.891 31.312 57.824 1.3125 20.105 5.6445 47.363 27.668 79.961 10.793 15.969 19.844 23.957 27.121 30.371 7.1602 6.3125 12.332 10.875 16.23 20.625 1.75 4.375 1.6875 8.0703-0.19141 11.309-2.1367 3.6797-6.0625 5.875-10.5 5.875-3.6016 0-6.9492-1.418-9.4219-3.9961l-33.121-34.465c-7.2617-7.5547-19.434-9.668-28.84-4.9766l-16.121 8.0625c-10.297 5.1484-21.871 7.6992-33.414 7.3984l-56.773-1.5859-0.68359-0.007812c-11.434 0-21.191 7.7891-23.734 18.941l-0.87109 3.8867c-1.6562 7.2617 0.0625 14.766 4.707 20.59 4.6445 5.8203 11.578 9.1602 19.027 9.1602h211.02v5.3164h-54.426l13.762 8.3359 3.582-3.3359h42.086v-10.32h106.71c47.609 0 73.328-23.18 78.629-70.867 1.668-15.062-4.9453-36.43-19.652-63.508zm9.7031 62.402c-3.207 28.848-13.91 61.961-68.68 61.961l-322.75 0.003906c-4.3828 0-8.4688-1.9648-11.203-5.3945-2.7344-3.4297-3.7461-7.8438-2.7695-12.125l0.88281-3.8867c1.4961-6.5625 7.2344-11.148 14.363-11.148h0.015626l56.773 1.5859c13.191 0.375 26.41-2.5703 38.172-8.4492l16.121-8.0625c5.5898-2.793 12.828-1.5352 17.145 2.957l33.121 34.465c4.3164 4.4922 10.383 7.0703 16.641 7.0703 8.0469 0 15.211-4.0625 19.156-10.863 3.4297-5.9023 3.7148-12.836 0.82812-20.051-4.7852-11.961-11.328-17.73-18.902-24.414-7.207-6.3555-15.375-13.559-25.449-28.473-20.68-30.609-24.746-56.164-25.973-75.008-0.87891-13.461-6.1406-46.805-35.953-65.637-25.344-16.008-46.883-39.727-52.383-57.691-2.1523-7.0273-7.4258-25.234-15.672-54.129-3.7695-13.219-1.2031-27.07 7.0391-37.996 9.957-13.199 26.207-19.617 42.57-16.59 33.203 6.1406 78.203 14.367 104.02 18.672 4.5859 0.76562 8.5859 3.6797 10.707 7.793 3.7344 7.2539 8.3867 17.926 9.2969 27.488 0.96094 12.168 1.3203 46.062-8.4297 56.613-1.7031 1.8438-3.5273 2.7031-5.7422 2.7031-17.664 0-28.535-20.676-35.73-34.359-1.375-2.6172-2.6328-5.0039-3.793-7-15.375-26.488-35.109-35.402-54.41-24.871-24.68 13.465-12.84 42.938-7.1484 57.098 0.71484 1.7773 1.3672 3.3906 1.875 4.7891 4.9648 13.57 37.301 82.625 63.07 112.25 19.824 22.797 52.793 52.352 66.047 64.004 0.69922 0.61719 1.1094 1.4648 1.1523 2.3945 0.046875 0.96484-0.30469 1.8945-0.98438 2.6133-9.7617 10.32-12.344 21.441-7.2852 31.312 4.8359 9.4297 12.082 11.41 17.305 11.41 9.6367 0 20.055-6.3672 30.129-12.523l0.5-0.30469c10.492-6.4102 58.258-35.945 87.383-53.961 3.4297-2.125 7.3555-3.2422 11.352-3.2422 7.9648 0 15.281 4.3516 19.086 11.359 13.523 24.902 19.918 44.828 18.5 57.633z"/>
</svg>

<?xml version="1.0" encoding="utf-8"?>
<svg fill="#000000" width="800px" height="800px" version="1.1" viewBox="144 144 512 512" xmlns="http://www.w3.org/2000/svg">
  <path d="M 593.08 466.09 C 587.521 455.856 576.838 449.5 565.197 449.5 C 559.338 449.5 553.592 451.137 548.58 454.238 C 519.471 472.242 471.728 501.761 461.244 508.172 L 460.744 508.477 C 452.264 513.661 442.654 519.532 435.834 519.532 C 433.193 519.532 430.131 518.825 427.432 513.563 C 424.369 507.587 426.272 500.903 433.084 493.696 C 435.647 490.985 436.967 487.45 436.795 483.743 C 436.627 480.075 435.014 476.72 432.252 474.294 C 419.15 462.778 386.576 433.579 367.15 411.239 C 342.205 382.551 310.763 315.341 305.927 302.109 C 305.384 300.628 304.696 298.914 303.939 297.027 C 296.743 279.129 291.025 260.941 306.591 252.449 C 310.45 250.343 314.259 249.273 317.907 249.273 C 330.755 249.273 341.118 262.48 347.548 273.554 C 348.65 275.449 349.833 277.71 351.138 280.187 C 359.45 295.999 372.013 319.898 395.724 319.898 C 400.708 319.898 405.235 317.851 408.814 313.98 C 423.255 298.355 420.259 254.71 419.865 249.707 C 418.798 238.477 413.634 226.539 409.494 218.504 C 405.935 211.594 399.217 206.703 391.533 205.422 C 365.787 201.125 320.849 192.914 287.683 186.777 C 267.621 183.07 247.542 190.968 235.308 207.183 C 225.152 220.64 221.992 237.691 226.632 253.956 C 235.011 283.315 240.155 301.081 242.359 308.268 C 249.558 331.791 275.976 356.975 298.964 371.495 C 324.886 387.866 329.499 417.386 330.276 429.319 C 331.588 449.424 335.92 476.682 357.944 509.28 C 368.737 525.249 377.788 533.237 385.065 539.651 C 392.225 545.963 397.397 550.526 401.295 560.276 C 403.045 564.651 402.982 568.346 401.104 571.585 C 398.967 575.265 395.041 577.46 390.604 577.46 C 387.002 577.46 383.654 576.042 381.182 573.464 L 348.061 538.999 C 340.799 531.444 328.627 529.331 319.221 534.022 L 303.1 542.085 C 292.803 547.233 281.229 549.784 269.686 549.483 L 212.913 547.897 L 212.229 547.889 C 200.795 547.889 191.038 555.678 188.495 566.83 L 187.624 570.717 C 185.968 577.979 187.686 585.483 192.331 591.307 C 196.975 597.127 203.909 600.467 211.358 600.467 L 534.092 600.464 C 581.701 600.464 607.42 577.284 612.721 529.597 C 614.389 514.535 607.776 493.167 593.069 466.089 L 593.08 466.09 Z M 602.783 528.492 C 599.576 557.34 588.873 590.453 534.103 590.453 L 211.353 590.457 C 206.97 590.457 202.884 588.492 200.15 585.062 C 197.416 581.633 196.404 577.219 197.381 572.937 L 198.263 569.051 C 199.76 562.488 205.498 557.903 212.626 557.903 L 212.642 557.903 L 269.415 559.489 C 282.606 559.864 295.825 556.918 307.587 551.039 L 323.708 542.977 C 329.298 540.184 336.536 541.442 340.853 545.934 L 373.974 580.399 C 378.29 584.891 384.357 587.469 390.615 587.469 C 398.662 587.469 405.826 583.407 409.771 576.606 C 413.201 570.704 413.486 563.77 410.599 556.555 C 405.814 544.594 399.271 538.825 391.697 532.141 C 384.49 525.786 376.322 518.582 366.248 503.668 C 345.568 473.059 341.502 447.504 340.275 428.66 C 339.396 415.199 334.135 381.855 304.322 363.023 C 278.978 347.015 257.439 323.296 251.939 305.332 C 249.787 298.305 244.513 280.098 236.267 251.203 C 232.498 237.984 235.064 224.133 243.306 213.207 C 253.263 200.008 269.513 193.59 285.876 196.617 C 319.079 202.758 364.079 210.984 389.896 215.289 C 394.482 216.055 398.482 218.969 400.603 223.082 C 404.338 230.336 408.99 241.008 409.9 250.57 C 410.861 262.738 411.221 296.632 401.471 307.183 C 399.767 309.027 397.943 309.886 395.728 309.886 C 378.064 309.886 367.193 289.21 359.998 275.527 C 358.623 272.91 357.366 270.523 356.205 268.527 C 340.83 242.039 321.096 233.125 301.795 243.656 C 277.115 257.121 288.955 286.594 294.647 300.754 C 295.362 302.532 296.014 304.145 296.522 305.543 C 301.487 319.113 333.823 388.168 359.592 417.793 C 379.416 440.59 412.385 470.145 425.639 481.797 C 426.338 482.415 426.748 483.262 426.791 484.192 C 426.838 485.157 426.487 486.086 425.807 486.805 C 416.045 497.125 413.463 508.246 418.522 518.117 C 423.358 527.547 430.604 529.527 435.827 529.527 C 445.463 529.527 455.882 523.16 465.956 517.004 L 466.456 516.699 C 476.948 510.289 524.714 480.754 553.839 462.738 C 557.268 460.613 561.194 459.496 565.191 459.496 C 573.155 459.496 580.472 463.848 584.277 470.855 C 597.8 495.757 604.195 515.683 602.777 528.488 L 602.783 528.492 Z"/>
</svg>
